assets/img/git-commits.svg

<?xml version="1.0" encoding="UTF-8" standalone="no"?>
<svg
        fill-opacity="1"
        color-rendering="auto"
        color-interpolation="auto"
        text-rendering="auto"
        stroke="black"
        stroke-linecap="square"
        width="375"
        stroke-miterlimit="10"
        shape-rendering="auto"
        stroke-opacity="1"
        fill="black"
        stroke-dasharray="none"
        font-weight="normal"
        stroke-width="1"
        height="257"
        font-family="'Dialog'"
        font-style="normal"
        stroke-linejoin="miter"
        font-size="12px"
        stroke-dashoffset="0"
        image-rendering="auto"
        version="1.1"
        id="svg1031"
        sodipodi:docname="git-commits.svg"
        inkscape:version="1.2.2 (732a01da63, 2022-12-09)"
        inkscape:export-filename="git-commits.png"
        inkscape:export-xdpi="96"
        inkscape:export-ydpi="96"
        xmlns:inkscape="http://www.inkscape.org/namespaces/inkscape"
        xmlns:sodipodi="http://sodipodi.sourceforge.net/DTD/sodipodi-0.dtd"
        xmlns="http://www.w3.org/2000/svg"
>
  <sodipodi:namedview
     id="namedview1033"
     pagecolor="#505050"
     bordercolor="#eeeeee"
     borderopacity="1"
     inkscape:showpageshadow="0"
     inkscape:pageopacity="0"
     inkscape:pagecheckerboard="0"
     inkscape:deskcolor="#505050"
     showgrid="false"
     inkscape:zoom="3.0155642"
     inkscape:cx="187.5271"
     inkscape:cy="128.5"
     inkscape:window-width="1920"
     inkscape:window-height="991"
     inkscape:window-x="-9"
     inkscape:window-y="-9"
     inkscape:window-maximized="1"
     inkscape:current-layer="svg1031" />
  <!--Generated by ySVG 2.6-->
  <defs
     id="genericDefs">
    <defs
       id="defs1">
      <clipPath
         clipPathUnits="userSpaceOnUse"
         id="clipPath1">
        <path
           d="M0 0 L375 0 L375 257 L0 257 L0 0 Z"
           id="path924" />
      </clipPath>
      <clipPath
         clipPathUnits="userSpaceOnUse"
         id="clipPath2">
        <path
           d="M289 224 L664 224 L664 481 L289 481 L289 224 Z"
           id="path927" />
      </clipPath>
    </defs>
  </defs>
  <g
     fill="#c0c0c0"
     text-rendering="geometricPrecision"
     shape-rendering="geometricPrecision"
     transform="translate(-289,-224)"
     stroke="#c0c0c0"
     id="g937">
    <rect
       x="558.15997"
       width="90"
       height="30"
       y="370"
       clip-path="url(#clipPath2)"
       stroke="none"
       id="rect935" />
  </g>
  <g
     text-rendering="geometricPrecision"
     stroke-miterlimit="1.45"
     shape-rendering="geometricPrecision"
     transform="translate(-289,-224)"
     stroke-linecap="butt"
     id="g943">
    <rect
       fill="none"
       x="558.15997"
       width="90"
       height="30"
       y="370"
       clip-path="url(#clipPath2)"
       id="rect939" />
    <text
       x="574.35529"
       xml:space="preserve"
       y="388.19339"
       clip-path="url(#clipPath2)"
       font-family="'Courier New'"
       stroke="none"
       id="text941">383a7630</text>
  </g>
  <g
     fill="#c0c0c0"
     text-rendering="geometricPrecision"
     shape-rendering="geometricPrecision"
     transform="translate(-289,-224)"
     stroke="#c0c0c0"
     id="g947">
    <rect
       x="304.07999"
       width="90"
       height="30"
       y="370"
       clip-path="url(#clipPath2)"
       stroke="none"
       id="rect945" />
  </g>
  <g
     text-rendering="geometricPrecision"
     stroke-miterlimit="1.45"
     shape-rendering="geometricPrecision"
     transform="translate(-289,-224)"
     stroke-linecap="butt"
     id="g953">
    <rect
       fill="none"
       x="304.07999"
       width="90"
       height="30"
       y="370"
       clip-path="url(#clipPath2)"
       id="rect949" />
    <text
       x="320.2753"
       xml:space="preserve"
       y="388.19339"
       clip-path="url(#clipPath2)"
       font-family="'Courier New'"
       stroke="none"
       id="text951">1c060f79</text>
  </g>
  <g
     fill="#c0c0c0"
     text-rendering="geometricPrecision"
     shape-rendering="geometricPrecision"
     transform="translate(-289,-224)"
     stroke="#c0c0c0"
     id="g957">
    <rect
       x="431.12"
       width="90"
       height="30"
       y="304.76001"
       clip-path="url(#clipPath2)"
       stroke="none"
       id="rect955" />
  </g>
  <g
     text-rendering="geometricPrecision"
     stroke-miterlimit="1.45"
     shape-rendering="geometricPrecision"
     transform="translate(-289,-224)"
     stroke-linecap="butt"
     id="g963">
    <rect
       fill="none"
       x="431.12"
       width="90"
       height="30"
       y="304.76001"
       clip-path="url(#clipPath2)"
       id="rect959" />
    <text
       x="447.31531"
       xml:space="preserve"
       y="322.9534"
       clip-path="url(#clipPath2)"
       font-family="'Courier New'"
       stroke="none"
       id="text961">1fe791ec</text>
  </g>
  <g
     fill="#c0c0c0"
     text-rendering="geometricPrecision"
     shape-rendering="geometricPrecision"
     transform="translate(-289,-224)"
     stroke="#c0c0c0"
     id="g967">
    <rect
       x="304.07999"
       width="90"
       height="30"
       y="304.76001"
       clip-path="url(#clipPath2)"
       stroke="none"
       id="rect965" />
  </g>
  <g
     text-rendering="geometricPrecision"
     stroke-miterlimit="1.45"
     shape-rendering="geometricPrecision"
     transform="translate(-289,-224)"
     stroke-linecap="butt"
     id="g973">
    <rect
       fill="none"
       x="304.07999"
       width="90"
       height="30"
       y="304.76001"
       clip-path="url(#clipPath2)"
       id="rect969" />
    <text
       x="320.2753"
       xml:space="preserve"
       y="322.9534"
       clip-path="url(#clipPath2)"
       font-family="'Courier New'"
       stroke="none"
       id="text971">01cda149</text>
  </g>
  <g
     fill="#ffcc00"
     text-rendering="geometricPrecision"
     shape-rendering="geometricPrecision"
     transform="translate(-289,-224)"
     stroke="#ffcc00"
     id="g977">
    <rect
       x="304.07999"
       width="90"
       height="30"
       y="239.52"
       clip-path="url(#clipPath2)"
       stroke="none"
       id="rect975" />
  </g>
  <g
     text-rendering="geometricPrecision"
     stroke-miterlimit="1.45"
     shape-rendering="geometricPrecision"
     transform="translate(-289,-224)"
     stroke-linecap="butt"
     id="g983">
    <rect
       fill="none"
       x="304.07999"
       width="90"
       height="30"
       y="239.52"
       clip-path="url(#clipPath2)"
       id="rect979" />
    <text
       x="323.87589"
       y="257.71329"
       clip-path="url(#clipPath2)"
       font-family="'Courier New'"
       stroke="none"
       font-weight="bold"
       xml:space="preserve"
       id="text981">testing</text>
  </g>
  <g
     fill="#ffcc00"
     text-rendering="geometricPrecision"
     shape-rendering="geometricPrecision"
     transform="translate(-289,-224)"
     stroke="#ffcc00"
     id="g987">
    <rect
       x="304.07999"
       width="90"
       height="30"
       y="435.23999"
       clip-path="url(#clipPath2)"
       stroke="none"
       id="rect985" />
  </g>
  <g
     text-rendering="geometricPrecision"
     stroke-miterlimit="1.45"
     shape-rendering="geometricPrecision"
     transform="translate(-289,-224)"
     stroke-linecap="butt"
     id="g993">
    <rect
       fill="none"
       x="304.07999"
       width="90"
       height="30"
       y="435.23999"
       clip-path="url(#clipPath2)"
       id="rect989" />
    <text
       x="327.4765"
       y="453.43329"
       clip-path="url(#clipPath2)"
       font-family="'Courier New'"
       stroke="none"
       font-weight="bold"
       xml:space="preserve"
       id="text991">master</text>
  </g>
  <g
     fill="#ffcc00"
     text-rendering="geometricPrecision"
     shape-rendering="geometricPrecision"
     transform="translate(-289,-224)"
     stroke="#ffcc00"
     id="g997">
    <rect
       x="431.12"
       width="90"
       height="30"
       y="239.52"
       clip-path="url(#clipPath2)"
       stroke="none"
       id="rect995" />
  </g>
  <g
     text-rendering="geometricPrecision"
     stroke-miterlimit="1.45"
     shape-rendering="geometricPrecision"
     transform="translate(-289,-224)"
     stroke-linecap="butt"
     id="g1027">
    <rect
       fill="none"
       x="431.12"
       width="90"
       height="30"
       y="239.52"
       clip-path="url(#clipPath2)"
       id="rect999" />
    <text
       x="450.91589"
       y="257.71329"
       clip-path="url(#clipPath2)"
       font-family="'Courier New'"
       stroke="none"
       font-weight="bold"
       xml:space="preserve"
       id="text1001">develop</text>
    <path
       fill="none"
       d="M 558.16,385 H 402.08"
       clip-path="url(#clipPath2)"
       id="path1003" />
    <path
       d="m 394.08,385 12,5 -3,-5 3,-5 z"
       clip-path="url(#clipPath2)"
       stroke="none"
       id="path1005" />
    <path
       fill="none"
       d="M 603.16,370 V 319.76 H 529.12"
       clip-path="url(#clipPath2)"
       id="path1007" />
    <path
       d="m 521.12,319.76 12,5 -3,-5 3,-5 z"
       clip-path="url(#clipPath2)"
       stroke="none"
       id="path1009" />
    <path
       fill="none"
       d="M 431.12,319.76 H 402.08"
       clip-path="url(#clipPath2)"
       id="path1011" />
    <path
       d="m 394.08,319.76 12,5 -3,-5 3,-5 z"
       clip-path="url(#clipPath2)"
       stroke="none"
       id="path1013" />
    <path
       fill="none"
       d="m 349.08,269.52 v 27.24"
       clip-path="url(#clipPath2)"
       id="path1015" />
    <path
       d="m 349.08,304.76 5,-12 -5,3 -5,-3 z"
       clip-path="url(#clipPath2)"
       stroke="none"
       id="path1017" />
    <path
       fill="none"
       d="M 349.08,435.24 V 408"
       clip-path="url(#clipPath2)"
       id="path1019" />
    <path
       d="m 349.08,400 -5,12 5,-3 5,3 z"
       clip-path="url(#clipPath2)"
       stroke="none"
       id="path1021" />
    <path
       fill="none"
       d="m 476.12,269.52 v 27.24"
       clip-path="url(#clipPath2)"
       id="path1023" />
    <path
       d="m 476.12,304.76 5,-12 -5,3 -5,-3 z"
       clip-path="url(#clipPath2)"
       stroke="none"
       id="path1025" />
  </g>
</svg>

<?xml version="1.0" encoding="UTF-8"?>
<svg xmlns="http://www.w3.org/2000/svg" fill-opacity="1" color-rendering="auto" color-interpolation="auto"
     text-rendering="auto" stroke="black" stroke-linecap="square" width="375" stroke-miterlimit="10"
     shape-rendering="auto" stroke-opacity="1" fill="black" stroke-dasharray="none" font-weight="normal"
     stroke-width="1" height="257" font-family="'Dialog'" font-style="normal" stroke-linejoin="miter" font-size="12px"
     stroke-dashoffset="0" image-rendering="auto">
    <!--Generated by ySVG 2.6-->
    <defs id="genericDefs"/>
    <g>
        <defs id="defs1">
            <clipPath clipPathUnits="userSpaceOnUse" id="clipPath1">
                <path d="M0 0 L375 0 L375 257 L0 257 L0 0 Z"/>
            </clipPath>
            <clipPath clipPathUnits="userSpaceOnUse" id="clipPath2">
                <path d="M289 224 L664 224 L664 481 L289 481 L289 224 Z"/>
            </clipPath>
        </defs>
        <g fill="white" text-rendering="geometricPrecision" shape-rendering="geometricPrecision"
           transform="translate(-289,-224)" stroke="white">
            <rect x="289" width="375" height="257" y="224" clip-path="url(#clipPath2)" stroke="none"/>
        </g>
        <g fill="silver" text-rendering="geometricPrecision" shape-rendering="geometricPrecision"
           transform="matrix(1,0,0,1,-289,-224)" stroke="silver">
            <rect x="558.16" width="90" height="30" y="370" clip-path="url(#clipPath2)" stroke="none"/>
        </g>
        <g text-rendering="geometricPrecision" stroke-miterlimit="1.45" shape-rendering="geometricPrecision"
           transform="matrix(1,0,0,1,-289,-224)" stroke-linecap="butt">
            <rect fill="none" x="558.16" width="90" height="30" y="370" clip-path="url(#clipPath2)"/>
            <text x="574.3553" xml:space="preserve" y="388.1934" clip-path="url(#clipPath2)" font-family="'Courier New'"
                  stroke="none">383a7630</text>
        </g>
        <g fill="silver" text-rendering="geometricPrecision" shape-rendering="geometricPrecision"
           transform="matrix(1,0,0,1,-289,-224)" stroke="silver">
            <rect x="304.08" width="90" height="30" y="370" clip-path="url(#clipPath2)" stroke="none"/>
        </g>
        <g text-rendering="geometricPrecision" stroke-miterlimit="1.45" shape-rendering="geometricPrecision"
           transform="matrix(1,0,0,1,-289,-224)" stroke-linecap="butt">
            <rect fill="none" x="304.08" width="90" height="30" y="370" clip-path="url(#clipPath2)"/>
            <text x="320.2753" xml:space="preserve" y="388.1934" clip-path="url(#clipPath2)" font-family="'Courier New'"
                  stroke="none">1c060f79</text>
        </g>
        <g fill="silver" text-rendering="geometricPrecision" shape-rendering="geometricPrecision"
           transform="matrix(1,0,0,1,-289,-224)" stroke="silver">
            <rect x="431.12" width="90" height="30" y="304.76" clip-path="url(#clipPath2)" stroke="none"/>
        </g>
        <g text-rendering="geometricPrecision" stroke-miterlimit="1.45" shape-rendering="geometricPrecision"
           transform="matrix(1,0,0,1,-289,-224)" stroke-linecap="butt">
            <rect fill="none" x="431.12" width="90" height="30" y="304.76" clip-path="url(#clipPath2)"/>
            <text x="447.3153" xml:space="preserve" y="322.9534" clip-path="url(#clipPath2)" font-family="'Courier New'"
                  stroke="none">1fe791ec</text>
        </g>
        <g fill="silver" text-rendering="geometricPrecision" shape-rendering="geometricPrecision"
           transform="matrix(1,0,0,1,-289,-224)" stroke="silver">
            <rect x="304.08" width="90" height="30" y="304.76" clip-path="url(#clipPath2)" stroke="none"/>
        </g>
        <g text-rendering="geometricPrecision" stroke-miterlimit="1.45" shape-rendering="geometricPrecision"
           transform="matrix(1,0,0,1,-289,-224)" stroke-linecap="butt">
            <rect fill="none" x="304.08" width="90" height="30" y="304.76" clip-path="url(#clipPath2)"/>
            <text x="320.2753" xml:space="preserve" y="322.9534" clip-path="url(#clipPath2)" font-family="'Courier New'"
                  stroke="none">01cda149</text>
        </g>
        <g fill="rgb(255,204,0)" text-rendering="geometricPrecision" shape-rendering="geometricPrecision"
           transform="matrix(1,0,0,1,-289,-224)" stroke="rgb(255,204,0)">
            <rect x="304.08" width="90" height="30" y="239.52" clip-path="url(#clipPath2)" stroke="none"/>
        </g>
        <g text-rendering="geometricPrecision" stroke-miterlimit="1.45" shape-rendering="geometricPrecision"
           transform="matrix(1,0,0,1,-289,-224)" stroke-linecap="butt">
            <rect fill="none" x="304.08" width="90" height="30" y="239.52" clip-path="url(#clipPath2)"/>
            <text x="323.8759" y="257.7133" clip-path="url(#clipPath2)" font-family="'Courier New'" stroke="none"
                  font-weight="bold" xml:space="preserve">testing</text>
        </g>
        <g fill="rgb(255,204,0)" text-rendering="geometricPrecision" shape-rendering="geometricPrecision"
           transform="matrix(1,0,0,1,-289,-224)" stroke="rgb(255,204,0)">
            <rect x="304.08" width="90" height="30" y="435.24" clip-path="url(#clipPath2)" stroke="none"/>
        </g>
        <g text-rendering="geometricPrecision" stroke-miterlimit="1.45" shape-rendering="geometricPrecision"
           transform="matrix(1,0,0,1,-289,-224)" stroke-linecap="butt">
            <rect fill="none" x="304.08" width="90" height="30" y="435.24" clip-path="url(#clipPath2)"/>
            <text x="327.4765" y="453.4333" clip-path="url(#clipPath2)" font-family="'Courier New'" stroke="none"
                  font-weight="bold" xml:space="preserve">master</text>
        </g>
        <g fill="rgb(255,204,0)" text-rendering="geometricPrecision" shape-rendering="geometricPrecision"
           transform="matrix(1,0,0,1,-289,-224)" stroke="rgb(255,204,0)">
            <rect x="431.12" width="90" height="30" y="239.52" clip-path="url(#clipPath2)" stroke="none"/>
        </g>
        <g text-rendering="geometricPrecision" stroke-miterlimit="1.45" shape-rendering="geometricPrecision"
           transform="matrix(1,0,0,1,-289,-224)" stroke-linecap="butt">
            <rect fill="none" x="431.12" width="90" height="30" y="239.52" clip-path="url(#clipPath2)"/>
            <text x="450.9159" y="257.7133" clip-path="url(#clipPath2)" font-family="'Courier New'" stroke="none"
                  font-weight="bold" xml:space="preserve">develop</text>
            <path fill="none" d="M558.16 385 L402.08 385" clip-path="url(#clipPath2)"/>
            <path d="M394.08 385 L406.08 390 L403.08 385 L406.08 380 Z" clip-path="url(#clipPath2)" stroke="none"/>
            <path fill="none" d="M603.16 370 L603.16 319.76 L529.12 319.76" clip-path="url(#clipPath2)"/>
            <path d="M521.12 319.76 L533.12 324.76 L530.12 319.76 L533.12 314.76 Z" clip-path="url(#clipPath2)"
                  stroke="none"/>
            <path fill="none" d="M431.12 319.76 L402.08 319.76" clip-path="url(#clipPath2)"/>
            <path d="M394.08 319.76 L406.08 324.76 L403.08 319.76 L406.08 314.76 Z" clip-path="url(#clipPath2)"
                  stroke="none"/>
            <path fill="none" d="M349.08 269.52 L349.08 296.76" clip-path="url(#clipPath2)"/>
            <path d="M349.08 304.76 L354.08 292.76 L349.08 295.76 L344.08 292.76 Z" clip-path="url(#clipPath2)"
                  stroke="none"/>
            <path fill="none" d="M349.08 435.24 L349.08 408" clip-path="url(#clipPath2)"/>
            <path d="M349.08 400 L344.08 412 L349.08 409 L354.08 412 Z" clip-path="url(#clipPath2)" stroke="none"/>
            <path fill="none" d="M476.12 269.52 L476.12 296.76" clip-path="url(#clipPath2)"/>
            <path d="M476.12 304.76 L481.12 292.76 L476.12 295.76 L471.12 292.76 Z" clip-path="url(#clipPath2)"
                  stroke="none"/>
        </g>
    </g>
</svg>
